X:1
T:On the Golden Strand
T:On the Golden Strand
T:L. O. Brock
T:Walter H. Legg, 1913
T:Public Domain Courtesy of the Cyber Hymnal™
T:Public Domain Courtesy of the Cyber Hymnal™
C:L. O. Brock
Z:Public Domain
Z:Courtesy of the Cyber Hymnal™
%%score ( 1 2 ) ( 3 4 )
L:1/8
Q:1/4=100
M:4/4
K:Ab
V:1 treble 
V:2 treble 
V:3 bass 
V:4 bass 
V:1
 [CE][CE] | [CA]2 [CA][CE] [CA]2 [CA][Ec] | [Ee]3 [Ed] [Ec]2 [EA]A | [GB]3 [GB] [FA]2 [GB]2 | %4
w: 1.~There’s a|beau- ti- ful man- sion in|Heav’n for all Who be-|lieve in Je- sus’|
w: 2.~We have|friends gone be- fore to that|land on high, Shel- tered|safe- ly in His|
w: 3.~When by|faith we have crossed to the|o- ther side, We shall|join the an- gel|
 [Ac]6 [CE][CE] | [CA]2 [CA][CE] [CA]2 [EA][Ec] | [Ae]3 [Af] [Ae]2 [Ac][Ac] | %7
w: name; Those who|trust in His grace and o-|bey His call, Ev- er|
w: fold; We ex-|pect to be there some sweet|by and by, There to|
w: band, With our|Sav- ior and loved ones to|e’er a- bide On the|
 [Ee]2 [Ee][Fd] [Ec]2 [DB]2 | [CA]6 ||"^Refrain" [CE][DF] | A6 [EA][EB] | %11
w: in His blest courts shall|reign.|There’s a|home in that|
w: dwell ’mid the joys un-|told.|||
w: beau- ti- ful gold- en|strand.|||
 [Ec]2 [Ed][Ed] [Ec]2 [Ae]2 | [Ge]3 [Gd] [Ac]2 A2 | B6 [Ac][Ad] | e6 [Ac][GB] | A6 [Ae][Gd] | %16
w: beau- ti- ful land, A|home for you and|me, On that|bright gold- en|strand, We shall|
w: |||||
w: |||||
 [FA]3 [Ad] [Ac]2 [GB]2 | A6 |] %18
w: dwell e- ter- nal-|ly.|
w: ||
w: ||
V:2
 x2 | x8 | x7 A | x8 | x8 | x8 | x8 | x8 | x6 || x2 | (E2 FF E2) x2 | x8 | x6 A2 | (GGFF G2) x2 | %14
 (A2 GG A2) x2 | (F2 FF E2) x2 | x8 | (AEFF E2) |] %18
V:3
 [A,,A,][A,,A,] | [A,,A,]2 [A,,A,][A,,A,] [A,,A,]2 [A,,A,][A,,A,] | %2
w: ~ ~|~ ~ ~ ~ ~ ~|
 [A,,C]3 [A,,B,] [A,,A,]2 [A,C][A,C] | [E,D]3 [E,D] [F,C]2 [E,E]2 | [A,E]6 [A,,A,][A,,A,] | %5
w: ~ ~ ~ ~ ~|~ ~ ~ ~|~ ~ ~|
 [A,,A,]2 [A,,A,][A,,A,] [A,,A,]2 [A,C][A,E] | [A,C]3 [A,D] [A,C]2 [A,E][A,E] | %7
w: ~ ~ ~ ~ ~ ~|~ ~ ~ ~ ~|
 [A,C]2 [C,A,][D,A,] [E,A,]2 [E,G,]2 | [A,,A,]6 || [A,,A,][A,,A,] | %10
w: ~ ~ ~ ~ ~|~|~ ~|
 [A,,C]2 [D,D][D,D] [A,,C]2 [C,A,][E,G,] | A,2 [G,B,][G,B,] A,2 [A,C]2 | %12
w: ~ o- ver there ~ ~|~ ~ ~ ~ ~|
 [E,B,]3 [E,B,] [F,A,]2 [C,E]2 | [E,E][E,E][B,,=D][B,,D] [E,E]2 [A,E][A,B,] | %14
w: ~ ~ ~ ~|~ for you and me; ~ ~|
 [A,C]2 [E,B,][E,B,] [A,C]2 [A,E][E,D] | [F,C]2 [D,D][D,D] [A,,C]2 [C,E][C,E] | %16
w: ~ gold- en strand, On that|bright gold- en strand ~ ~|
 [F,C]3 [D,F] [E,E]2 [E,D]2 | CCDD C2 |] %18
w: ~ ~ ~ ~|~ e- ter- nal- ly|
V:4
 x2 | x8 | x8 | x8 | x8 | x8 | x8 | x8 | x6 || x2 | x8 | A,2 A,2 x4 | x8 | x8 | x8 | x8 | x8 | %17
 A,,6 |] %18

